X:520
T:the Boar's Head Carol
M:4/4
L:1/8
K:D
A2 | d4 d3 d | c2 d2 A3 F | G2 G2 B3 G | A3 A d2 AA | 
d2 dd d2 d2 | c2 d2 A3 F | G2 G2 B3 G | A2 A2 d4 |] 
d3 d c2 c2 | d2 d2 A4 | G2 G2 B3 G | A2 A2 d4 | 
d3 d c2 c2 | d2 d2 A4 | G2 G2 B3 G | A2 A2 d4 |] 

